X:142
T: MEIN GLUECK BLUEHT AUF DIESER WELT
N: E0728B
O: Europa, Mitteleuropa, Deutschland, Niederrhein, Meurs
R: Liebes - Lied, Leid, Klage. +++ TAKTART 2/4 ergaenzt +++
M: 4/4
L: 1/16
K: G
D4 | G4G4G2D2D2F2 | G8z4
G2A2 | B4B2d2c4B4 | c2B2
A2G2 | D3DD2c2B6A2 | B4
c2A2 | G3GG2B2B2A2A2F2 | G8z4

